raw/symbols/ltc.svg

<svg width="42" height="42" viewBox="0 0 42 42" fill="none" xmlns="http://www.w3.org/2000/svg">
<circle cx="21" cy="21" r="21" fill="#345D9D"/>
<path d="M20.9113 22.3306L19.0012 28.7743H29.2166C29.3532 28.7694 29.4861 28.8191 29.5861 28.9123C29.6862 29.0055 29.7451 29.1346 29.75 29.2713V29.44L28.862 32.5104C28.8228 32.6554 28.7356 32.7828 28.6146 32.8717C28.4935 32.9606 28.3459 33.0056 28.1959 32.9994H12.5614L15.1816 24.0667L12.25 24.9553L12.9168 22.9112L15.8476 22.0219L19.5346 9.48933C19.5751 9.34511 19.6627 9.2186 19.7834 9.12997C19.9041 9.04134 20.051 8.9957 20.2006 9.00032H24.1536C24.2902 8.99565 24.423 9.04545 24.5229 9.13878C24.6228 9.23211 24.6816 9.36132 24.6863 9.49799V9.66748L21.5774 20.2447L24.5089 19.3554L23.8883 21.4889L20.9113 22.3306Z" fill="#F3F3F3"/>
</svg>

<svg xmlns="http://www.w3.org/2000/svg" width="42" height="42" fill="none"><circle cx="21" cy="21" r="21" fill="#345D9D"/><path fill="#F3F3F3" d="m20.911 22.33-1.91 6.444h10.216a.515.515 0 0 1 .533.497v.169l-.888 3.07a.663.663 0 0 1-.666.49H12.56l2.62-8.933-2.931.888.667-2.044 2.93-.89L19.536 9.49A.67.67 0 0 1 20.2 9h3.953a.515.515 0 0 1 .532.498v.17l-3.109 10.577 2.932-.89-.62 2.134-2.978.842Z"/></svg>
